assets/icons/qvision/wb_auto.svg

<svg xmlns="http://www.w3.org/2000/svg" height="24" viewBox="0 0 24 24" width="24"><path d="M0 0h24v24H0z" fill="none"/><path d="M6.85 12.65h2.3L8 9l-1.15 3.65zM22 7l-1.2 6.29L19.3 7h-1.6l-1.49 6.29L15 7h-.76C12.77 5.17 10.53 4 8 4c-4.42 0-8 3.58-8 8s3.58 8 8 8c3.13 0 5.84-1.81 7.15-4.43l.1.43H17l1.5-6.1L20 16h1.75l2.05-9H22zm-11.7 9l-.7-2H6.4l-.7 2H3.8L7 7h2l3.2 9h-1.9z"/></svg>

<svg width="24" height="24" viewBox="0 0 24 24" fill="none" xmlns="http://www.w3.org/2000/svg">
<g clip-path="url(#clip0_147_3773)">
<path d="M6.85 12.65H9.15L8 9L6.85 12.65ZM22 7L20.8 13.29L19.3 7H17.7L16.21 13.29L15 7H14.24C12.77 5.17 10.53 4 8 4C3.58 4 0 7.58 0 12C0 16.42 3.58 20 8 20C11.13 20 13.84 18.19 15.15 15.57L15.25 16H17L18.5 9.9L20 16H21.75L23.8 7H22ZM10.3 16L9.6 14H6.4L5.7 16H3.8L7 7H9L12.2 16H10.3Z" fill="#323232"/>
</g>
<defs>
<clipPath id="clip0_147_3773">
<rect width="24" height="24" fill="white"/>
</clipPath>
</defs>
</svg>
